dist/images/404-logo.svg

<svg width="92" height="60" viewBox="0 0 92 60" fill="none" xmlns="http://www.w3.org/2000/svg">
<g clip-path="url(#clip0)">
<path d="M19.2742 25.249V31.0896C17.9713 28.5961 15.9945 27.3382 13.3438 27.3382C10.6931 27.3382 9.36777 28.7983 9.36777 31.7185C9.36777 33.1787 9.72719 34.2344 10.446 34.8859C11.1649 35.5373 12.3105 35.8518 13.9054 35.8518C15.4105 35.8518 16.6684 35.4924 17.6793 34.7736C18.6901 34.0547 19.1619 33.1787 19.1169 32.1453C19.1169 32.1004 19.1169 32.0555 19.0945 31.9656C19.5213 32.325 19.7459 32.8417 19.7459 33.4931C19.7459 34.9982 19.1169 36.2112 17.859 37.1547C16.601 38.0982 14.9612 38.5474 12.8945 38.5474C10.5359 38.5474 8.51416 37.896 6.80693 36.6156C5.09971 35.3352 4.24609 33.8076 4.24609 32.033C4.24609 30.2359 5.09971 28.6186 6.80693 27.1809C8.51416 25.7432 10.4685 25.0469 12.6474 25.0469C14.5344 25.0469 16.1967 25.5635 17.6343 26.6193L19.2742 25.249Z" fill="white"/>
<path d="M29.2461 25.0469C31.3801 25.0469 33.2446 25.7432 34.8395 27.136C36.4119 28.5287 37.1981 30.191 37.1981 32.0779C37.1981 33.8301 36.4119 35.3576 34.817 36.638C33.2221 37.9185 31.3352 38.5474 29.1562 38.5474C26.9997 38.5474 25.1128 37.896 23.4954 36.6156C21.878 35.3127 21.0469 33.8301 21.0469 32.1229C21.0469 30.191 21.8556 28.5287 23.4729 27.136C25.0903 25.7432 27.0222 25.0469 29.2461 25.0469ZM29.1337 27.2034C28.2577 27.2034 27.5388 27.6302 26.9772 28.4613C26.4157 29.3149 26.1461 30.3932 26.1461 31.7185C26.1461 33.0439 26.4157 34.0997 26.9548 34.9083C27.4939 35.717 28.2352 36.0989 29.1337 36.0989C30.0323 36.0989 30.7736 35.6946 31.3127 34.9083C31.8518 34.1221 32.1214 33.0439 32.1214 31.7185C32.1214 30.3932 31.8518 29.3149 31.2902 28.4613C30.7286 27.6302 30.0098 27.2034 29.1337 27.2034Z" fill="white"/>
<path d="M49.9831 25.4736L47.9613 27.7424L51.5106 35.0206L54.7229 37.9409H44.0302L46.9729 35.38L46.5911 34.5264H41.7165L41.3346 35.38L43.8954 37.9409H35.9883L38.4817 35.0206L41.9636 27.7424L39.9868 25.4736H49.9831ZM44.0302 29.0903L42.5252 32.4598H45.6251L44.0302 29.0903Z" fill="white"/>
<path d="M54.6758 25.4736H65.8177C67.0981 25.4736 68.0865 25.6084 68.8053 25.878C69.5241 26.1475 70.243 26.6193 70.9393 27.3381C72.2872 28.7084 72.9611 30.2359 72.9611 31.9206C72.9611 33.6953 72.2647 35.1554 70.8944 36.2786C69.5241 37.4017 67.7271 37.9633 65.5257 37.9633H54.6758L57.7757 35.088V28.4163L54.6758 25.4736ZM62.1561 35.4699H64.2452C65.7054 35.4699 66.6937 35.2452 67.1655 34.7735C67.6372 34.3018 67.8843 33.3583 67.8843 31.9206C67.8843 29.0903 66.6938 27.6751 64.2902 27.6751H62.1561V35.4699Z" fill="white"/>
<path d="M74.0859 25.4736H86.4409C87.7887 25.4736 88.8669 25.7657 89.7205 26.3722C90.5517 26.9787 90.9785 27.7649 90.9785 28.7308C90.9785 30.146 89.743 31.067 87.2495 31.4938C90.1473 32.033 91.6075 33.1786 91.6075 34.9083C91.6075 36.93 89.8778 37.9409 86.4409 37.9409H74.1084L77.2084 35.088V28.3939L74.0859 25.4736ZM81.5663 30.3707H85.1155C86.0814 30.3707 86.5532 29.9439 86.5532 29.0903C86.5532 28.1468 86.059 27.6751 85.0931 27.6751H81.5888V30.3707H81.5663ZM81.5663 35.717H85.0706C86.2387 35.717 86.8227 35.2677 86.8227 34.3467C86.8227 33.3359 86.3959 32.8417 85.5199 32.8417H81.5888V35.717H81.5663Z" fill="white"/>
<path d="M39.0625 51.5537C43.8472 56.7653 47.3066 58.1355 53.8659 59.9775C52.608 54.137 51.5297 48.6559 46.453 45.0168C46.3182 45.1966 45.7342 45.8929 45.5994 46.0502C43.7798 48.1842 41.6009 50.0936 39.0625 51.5537Z" fill="white"/>
<path d="M13.0517 45.3538C13.0068 45.3313 12.9619 45.3313 12.9169 45.3088C8.17713 49.195 6.49237 54.3841 4.875 59.9775C11.5691 58.0007 16.4886 55.687 20.5096 51.7334C17.6343 49.9812 15.2082 47.8247 13.0517 45.3538Z" fill="white"/>
<path d="M16.7802 9.4796C18.3302 8.64845 19.6106 7.97454 21.1606 7.14339C19.8577 5.75065 18.6672 4.4927 17.3867 3.14489C12.7143 6.96368 12.7143 6.96368 12.7143 6.96368C10.5129 5.1666 8.28903 3.34706 8.17671 0C5.6608 1.61737 3.14489 3.25721 0 5.27892C4.64994 5.81805 5.99775 8.31149 7.77237 11.097C5.75066 11.973 3.97604 12.7593 2.08911 13.568C3.3246 14.8708 4.64994 16.2411 6.02022 17.6788C7.43542 16.6904 9.70423 14.7361 9.70423 14.7361C9.70423 14.7361 11.1644 15.8143 11.9281 16.3534C15.0505 15.5897 17.4991 14.4665 19.8577 13.4107C18.757 11.9955 17.8136 10.8049 16.7802 9.4796Z" fill="white"/>
<path d="M41.9624 9.4796C40.4124 8.64845 39.132 7.97454 37.582 7.14339C38.8849 5.75065 40.0979 4.4927 41.3784 3.14489C46.0508 6.96368 46.0508 6.96368 46.0508 6.96368C48.2522 5.1666 50.4761 3.34706 50.5884 0C53.1043 1.61737 55.6202 3.25721 58.7427 5.27892C54.1152 5.81805 52.7674 8.31149 50.9927 11.097C53.0145 11.973 54.7891 12.7593 56.676 13.568C55.4405 14.8708 54.1152 16.2411 52.7449 17.6788C51.3297 16.6904 49.0609 14.7361 49.0609 14.7361C49.0609 14.7361 47.6008 15.8143 46.837 16.3534C43.7146 15.5897 41.266 14.4665 38.9074 13.4107C40.0081 11.9955 40.9291 10.8049 41.9624 9.4796Z" fill="white"/>
<path d="M48.2736 19.094C40.7708 17.8135 34.6832 14.8259 29.1797 10.8274C24.1029 15.2752 17.8805 17.544 10.9168 19.0715C10.4676 19.1613 10.4226 20.8686 10.6023 23.0475H48.2512C48.2961 21.7671 48.3186 20.4418 48.2736 19.094Z" fill="white"/>
<path d="M29.2909 52.8791C36.0524 49.869 39.6016 48.1393 42.8139 44.3879C43.8023 43.2198 44.7008 41.8271 45.3747 40.4343H13.5664C16.6664 46.2299 22.6417 49.6219 29.2909 52.8791Z" fill="white"/>
<path d="M56.5412 43.8713C56.8781 43.8713 57.1926 43.9837 57.4397 44.2083C57.7093 44.4329 57.844 44.68 57.844 44.972C57.844 45.2641 57.7093 45.5112 57.4397 45.7358C57.1701 45.9604 56.8781 46.0728 56.5412 46.0728C56.2042 46.0728 55.8897 45.9604 55.6426 45.7358C55.3955 45.5112 55.2383 45.2641 55.2383 44.972C55.2383 44.68 55.3731 44.4329 55.6426 44.2083C55.8897 43.9837 56.2042 43.8713 56.5412 43.8713Z" fill="white"/>
<path d="M66.0867 43.1974C66.3788 43.5118 66.5135 43.8488 66.5135 44.1858C66.5135 44.8147 66.199 45.3089 65.5925 45.6908C64.986 46.0727 64.1773 46.2524 63.1665 46.2524C62.0882 46.2524 61.1448 45.9604 60.3585 45.3988C59.5723 44.8372 59.168 44.1633 59.168 43.3995C59.168 42.5235 59.5723 41.7822 60.4035 41.1756C61.2346 40.5691 62.223 40.2546 63.3686 40.2546C64.1773 40.2546 64.8962 40.4119 65.5027 40.7488C66.1092 41.0858 66.4012 41.4677 66.4012 41.9169C66.4012 42.5459 66.0193 42.8379 65.2556 42.8379C65.0534 42.8379 64.8063 42.793 64.5143 42.7256C64.5592 42.5235 64.5817 42.3662 64.5817 42.2314C64.5817 41.9619 64.4694 41.7597 64.2223 41.58C63.9752 41.4003 63.6831 41.3329 63.3462 41.3329C62.3353 41.3329 61.8187 41.9843 61.8187 43.2647C61.8187 44.4553 62.4476 45.0394 63.7056 45.0394C65.323 45.0394 66.0867 44.4329 66.0867 43.1974Z" fill="white"/>
<path d="M71.6802 40.2546C72.736 40.2546 73.6794 40.5691 74.4881 41.1981C75.2968 41.8271 75.7011 42.5459 75.7011 43.3771C75.7011 44.1633 75.2968 44.8372 74.4881 45.3988C73.6794 45.9604 72.7135 46.2299 71.5903 46.2299C70.4447 46.2299 69.4788 45.9379 68.6701 45.3538C67.8614 44.7698 67.457 44.051 67.457 43.2423C67.457 42.4111 67.8614 41.7148 68.6925 41.1307C69.5237 40.5467 70.5121 40.2546 71.6802 40.2546ZM71.5454 41.3778C70.6019 41.3778 70.1302 42.0068 70.1302 43.2872C70.1302 44.5002 70.6019 45.1068 71.5679 45.1068C72.5113 45.1068 72.9606 44.5002 72.9606 43.3097C72.9831 42.0293 72.5113 41.3778 71.5454 41.3778Z" fill="white"/>
<path d="M80.3735 40.4343V41.9169C80.9576 40.8387 81.7438 40.2996 82.7771 40.2996C83.9452 40.2996 84.709 40.8612 85.0459 41.9619C85.4952 40.8387 86.2814 40.2771 87.4046 40.2771C88.1908 40.2771 88.7973 40.4793 89.2017 40.8836C89.6285 41.288 89.8306 41.872 89.8306 42.6358V44.5227L91.7176 45.9379H86.3263L87.3597 44.7698V42.7705C87.3597 42.0966 87.0452 41.7597 86.4162 41.7597C86.0568 41.7597 85.7423 41.9169 85.4952 42.209C85.2481 42.501 85.1358 42.8829 85.1358 43.3321V44.7698L86.1691 45.9379H81.609L82.6423 44.7698V42.9278C82.6423 42.164 82.3503 41.7597 81.7662 41.7597C81.3619 41.7597 81.0474 41.8945 80.8003 42.1865C80.5532 42.4785 80.4409 42.8379 80.4409 43.3097V44.7473L81.4742 45.9154H76.2852L77.9699 44.5002V41.9394L76.2852 40.5242L80.3735 40.4343Z" fill="white"/>
</g>
<defs>
<clipPath id="clip0">
<rect width="91.7409" height="60" fill="white"/>
</clipPath>
</defs>
</svg>

<svg width="92" height="60" fill="none" xmlns="http://www.w3.org/2000/svg"><g clip-path="url(#clip0)" fill="#fff"><path d="M19.274 25.249v5.84c-1.303-2.493-3.28-3.75-5.93-3.75s-3.976 1.46-3.976 4.38c0 1.46.36 2.515 1.078 3.167.719.651 1.864.966 3.46.966 1.505 0 2.762-.36 3.773-1.078 1.011-.72 1.483-1.595 1.438-2.629 0-.045 0-.09-.023-.18.427.36.652.877.652 1.528 0 1.505-.63 2.718-1.887 3.662-1.258.943-2.898 1.392-4.965 1.392-2.358 0-4.38-.651-6.087-1.931-1.707-1.28-2.56-2.808-2.56-4.583 0-1.797.853-3.414 2.56-4.852 1.707-1.438 3.662-2.134 5.84-2.134 1.887 0 3.55.517 4.987 1.572l1.64-1.37zm9.972-.202c2.134 0 3.999.696 5.594 2.089 1.572 1.393 2.358 3.055 2.358 4.942 0 1.752-.786 3.28-2.381 4.56-1.595 1.28-3.482 1.91-5.66 1.91-2.157 0-4.044-.652-5.662-1.932-1.617-1.303-2.448-2.786-2.448-4.493 0-1.932.809-3.594 2.426-4.987 1.617-1.393 3.55-2.09 5.773-2.09zm-.112 2.156c-.876 0-1.595.427-2.157 1.258-.561.854-.83 1.932-.83 3.258 0 1.325.269 2.38.808 3.19.539.808 1.28 1.19 2.179 1.19.898 0 1.64-.404 2.179-1.19.539-.787.808-1.865.808-3.19 0-1.326-.27-2.404-.83-3.258-.562-.83-1.281-1.258-2.157-1.258zm20.849-1.729l-2.022 2.268 3.55 7.279 3.212 2.92H44.03l2.943-2.561-.382-.854h-4.874l-.382.854 2.56 2.56h-7.907l2.494-2.92 3.482-7.278-1.977-2.268h9.996zM44.03 29.09l-1.505 3.37h3.1l-1.595-3.37z"/><path d="M54.676 25.474h11.142c1.28 0 2.269.134 2.987.404.72.27 1.438.741 2.134 1.46 1.348 1.37 2.022 2.898 2.022 4.583 0 1.774-.696 3.234-2.067 4.358-1.37 1.123-3.167 1.684-5.368 1.684h-10.85l3.1-2.875v-6.672l-3.1-2.942zm7.48 9.996h2.09c1.46 0 2.448-.225 2.92-.697.471-.471.718-1.415.718-2.852 0-2.83-1.19-4.246-3.594-4.246h-2.134v7.795zm11.93-9.996H86.44c1.348 0 2.426.292 3.28.898.83.607 1.257 1.393 1.257 2.359 0 1.415-1.235 2.336-3.728 2.763 2.897.539 4.358 1.685 4.358 3.414 0 2.022-1.73 3.033-5.167 3.033H74.108l3.1-2.853v-6.694l-3.122-2.92zm7.48 4.897h3.55c.965 0 1.437-.427 1.437-1.28 0-.944-.494-1.416-1.46-1.416H81.59v2.696h-.023zm0 5.346h3.505c1.168 0 1.752-.45 1.752-1.37 0-1.011-.427-1.505-1.303-1.505h-3.931v2.875h-.023zM39.063 51.554c4.784 5.211 8.244 6.581 14.803 8.423-1.258-5.84-2.336-11.321-7.413-14.96-.135.18-.719.876-.854 1.033-1.82 2.134-3.998 4.044-6.536 5.504zm-26.011-6.2c-.045-.023-.09-.023-.135-.045-4.74 3.886-6.425 9.075-8.042 14.669C11.569 58 16.489 55.686 20.51 51.733c-2.876-1.752-5.302-3.908-7.458-6.38zM16.78 9.48c1.55-.832 2.83-1.505 4.38-2.337a692.57 692.57 0 00-3.773-3.998l-4.673 3.819C10.513 5.167 8.29 3.347 8.177 0 5.66 1.617 3.145 3.257 0 5.279c4.65.54 5.998 3.032 7.772 5.818-2.021.876-3.796 1.662-5.683 2.471 1.236 1.303 2.56 2.673 3.931 4.11 1.415-.988 3.684-2.942 3.684-2.942s1.46 1.078 2.224 1.617c3.122-.763 5.571-1.887 7.93-2.942-1.101-1.415-2.044-2.606-3.078-3.931zm25.182 0c-1.55-.832-2.83-1.505-4.38-2.337 1.303-1.392 2.516-2.65 3.796-3.998l4.673 3.819C48.252 5.167 50.476 3.347 50.588 0c2.516 1.617 5.032 3.257 8.155 5.279-4.628.54-5.976 3.032-7.75 5.818 2.021.876 3.796 1.662 5.683 2.471-1.236 1.303-2.56 2.673-3.931 4.11-1.415-.988-3.684-2.942-3.684-2.942s-1.46 1.078-2.224 1.617c-3.122-.763-5.571-1.887-7.93-2.942 1.101-1.415 2.022-2.606 3.055-3.931zm6.312 9.614c-7.503-1.28-13.59-4.268-19.094-8.267-5.077 4.448-11.3 6.717-18.263 8.245-.45.09-.494 1.797-.315 3.976h37.65a57.72 57.72 0 00.022-3.954zM29.29 52.88c6.762-3.011 10.312-4.74 13.524-8.492a19.227 19.227 0 002.56-3.954H13.567c3.1 5.796 9.076 9.188 15.725 12.445zm27.251-9.009c.337 0 .652.113.899.337.27.225.404.472.404.764 0 .292-.135.54-.404.764a1.36 1.36 0 01-.899.337c-.337 0-.651-.113-.898-.337-.248-.225-.405-.472-.405-.764 0-.292.135-.54.405-.764.247-.224.561-.337.898-.337zm9.546-.674c.292.315.426.652.426.989 0 .629-.314 1.123-.92 1.505-.607.382-1.416.561-2.427.561-1.078 0-2.021-.292-2.807-.853-.787-.562-1.191-1.236-1.191-2 0-.876.404-1.617 1.236-2.223.83-.607 1.819-.921 2.965-.921.808 0 1.527.157 2.134.494.606.337.898.719.898 1.168 0 .629-.382.92-1.145.92a3.51 3.51 0 01-.742-.111c.045-.203.068-.36.068-.495 0-.27-.113-.471-.36-.651-.247-.18-.539-.247-.876-.247-1.01 0-1.527.651-1.527 1.932 0 1.19.629 1.774 1.887 1.774 1.617 0 2.38-.606 2.38-1.842zm5.593-2.942c1.056 0 2 .314 2.808.943.809.63 1.213 1.348 1.213 2.18 0 .785-.404 1.46-1.213 2.02-.809.562-1.775.832-2.898.832-1.145 0-2.111-.292-2.92-.876-.809-.584-1.213-1.303-1.213-2.112 0-.83.404-1.527 1.236-2.111.83-.584 1.82-.876 2.987-.876zm-.135 1.123c-.943 0-1.415.629-1.415 1.91 0 1.212.472 1.819 1.438 1.819.943 0 1.393-.607 1.393-1.797.022-1.28-.45-1.932-1.416-1.932zm8.829-.944v1.483c.584-1.078 1.37-1.617 2.403-1.617 1.168 0 1.932.561 2.269 1.662.45-1.123 1.235-1.685 2.359-1.685.786 0 1.392.202 1.797.607.427.404.629.988.629 1.752v1.887l1.887 1.415h-5.392l1.034-1.168v-2c0-.673-.315-1.01-.944-1.01-.36 0-.674.157-.92.449-.248.292-.36.674-.36 1.123v1.438l1.033 1.168h-4.56l1.033-1.168v-1.842c0-.764-.292-1.168-.876-1.168-.404 0-.719.135-.966.427-.247.291-.36.65-.36 1.123v1.437l1.034 1.168h-5.189L77.97 44.5v-2.56l-1.685-1.416 4.089-.09z"/></g><defs><clipPath id="clip0"><path fill="#fff" d="M0 0h91.741v60H0z"/></clipPath></defs></svg>
